icons/1_Primary/Alibaba Cloud.svg

<svg width="1024" height="1024" fill="none" xmlns="http://www.w3.org/2000/svg"><g clip-path="url(#a)"><path d="M512 1024c282.77 0 512-229.23 512-512S794.77 0 512 0 0 229.23 0 512s229.23 512 512 512Z" fill="#F8C18C"/><path d="M426.81 492h170.8v38.34h-170.8V492Zm256-139.71H569.93L597.19 391l82.64 25.13a34.999 34.999 0 0 1 24.71 34.08v123.55a35.667 35.667 0 0 1-24.71 34.08L597.61 633l-27.69 38.76h112.89a85.185 85.185 0 0 0 60.255-24.957A85.168 85.168 0 0 0 768 586.54V437.46c.43-46.85-37.91-85.19-85.19-85.19m-341.61 0h112.87L426.81 391l-82.21 25.16a34.999 34.999 0 0 0-24.71 34.08v123.52a35.667 35.667 0 0 0 24.71 34.08L426.81 633l27.26 38.76H341.19A85.438 85.438 0 0 1 256 586.54V437.46a85.44 85.44 0 0 1 85.19-85.19" fill="#fff"/></g><defs><clipPath id="a"><path fill="#fff" d="M0 0h1024v1024H0z"/></clipPath></defs></svg>

<svg width="1024" height="1024" viewBox="0 0 1024 1024" fill="none" xmlns="http://www.w3.org/2000/svg">
<g clip-path="url(#clip0_2_1458)">
<path d="M512 1024C794.77 1024 1024 794.77 1024 512C1024 229.23 794.77 0 512 0C229.23 0 0 229.23 0 512C0 794.77 229.23 1024 512 1024Z" fill="#F8C18C"/>
<path d="M426.81 492H597.61V530.34H426.81V492ZM682.81 352.29H569.93L597.19 391L679.83 416.13C687.088 418.361 693.424 422.892 697.881 429.039C702.338 435.187 704.676 442.617 704.54 450.21V573.76C704.569 581.327 702.19 588.707 697.748 594.833C693.306 600.96 687.031 605.515 679.83 607.84L597.61 633L569.92 671.76H682.81C694.001 671.762 705.082 669.559 715.421 665.277C725.76 660.995 735.153 654.718 743.065 646.803C750.976 638.889 757.251 629.493 761.529 619.153C765.808 608.812 768.007 597.73 768 586.54V437.46C768.43 390.61 730.09 352.27 682.81 352.27M341.2 352.27H454.07L426.81 391L344.6 416.16C337.342 418.391 331.006 422.922 326.549 429.069C322.092 435.217 319.754 442.647 319.89 450.24V573.76C319.861 581.327 322.24 588.707 326.682 594.833C331.124 600.96 337.399 605.515 344.6 607.84L426.81 633L454.07 671.76H341.19C318.611 671.694 296.977 662.693 281.014 646.724C265.051 630.756 256.058 609.118 256 586.54V437.46C256.066 414.886 265.062 393.256 281.024 377.294C296.986 361.332 318.616 352.335 341.19 352.27" fill="white"/>
</g>
<defs>
<clipPath id="clip0_2_1458">
<rect width="1024" height="1024" fill="white"/>
</clipPath>
</defs>
</svg>
